!!!!SEGMENT: pl-wru--50044-muz--023_buchner-philipp-friedrich--plectrum-musicum-sonata-xxiii.krn
!!!cenid: 16xx:1824
!!!COM: Buchner, Philipp Friedrich
!!!COM-rismID: pe30013776
!!!CDT:
!!!CNT:
!!!GTL: Plectrum musicum
!!!OTL: Sonata XXIII
!!!PDT: 1662
!!!AGN:
!!!SMS-siglum: PL-WRu
!!!SMS-shelfmark: 50044 Muz.
!!!SMS-shelfwork: 023 G
!!!SMS-variant:
!!!SMS-altvar:
!!!NIFC-rismSourceID: 990007465
!!!NIFC-rismChildID: 990007465
!!!NIFC-islandoraID:
!!!URL-pdf-islandora:
!!!URL-scan: https://www.bibliotekacyfrowa.pl/dlibra/doccontent?id=116
!!!ONB-nifc: UWAGA: Violino I: s. 19, Violino II: s. 33, Viola da braccio: s. 39, Viola da gamba: s. 49, Fagotto: s. 63, Bassus: s. 77, Bassus continuus: s. 92
!!!AIN: 1 fagot 2 violn 1 violt
!!!key: g
**kern	**fba	**dynam	**kern	**fba	**dynam	**kern	**dynam	**kern	**dynam	**kern	**kern	**dynam	**kern	**dynam
*part7	*part7	*part7	*part6	*part6	*part6	*part5	*part5	*part4	*part4	*part3	*part2	*part2	*part1	*part1
*staff7	*	*	*staff6	*	*	*staff5	*	*staff4	*	*staff3	*staff2	*	*staff1	*
*I"BASSVS CONTINUUS.	*	*	*I"BASSVS	*	*	*I"VIOLA	*	*I"VIOLA DA BRACCIO.	*	*I"VIOLINO II.	*I"VIOLINO I.	*	*I"FAGOTTO	*
*I'bc	*	*	*I'b	*	*	*I'vla da gamba	*	*I'vla da braccio	*	*I'vl II	*I'vl I	*	*I'fag	*
*	*	*	*	*	*	*ICstr	*	*ICstr	*	*ICstr	*ICstr	*	*ICww	*
*	*	*	*	*	*	*Iviolt	*	*	*	*Ivioln	*Ivioln	*	*Ifagot	*
*IGcont	*	*	*IGcont	*	*	*	*	*	*	*	*	*	*	*
*clefF4	*	*	*clefF4	*	*	*clefC4	*	*clefC3	*	*clefG2	*clefG2	*	*clefF4	*
*k[b-]	*	*	*k[b-]	*	*	*k[b-]	*	*k[b-]	*	*k[b-]	*k[b-]	*	*k[b-]	*
*g:	*	*	*g:	*	*	*g:	*	*g:	*	*g:	*g:	*	*g:	*
*M3/2	*	*	*M3/2	*	*	*M3/2	*	*M3/2	*	*M3/2	*M3/2	*	*M3/2	*
=1-	=1-	=1-	=1-	=1-	=1-	=1-	=1-	=1-	=1-	=1-	=1-	=1-	=1-	=1-
!LO:TX:a:t=Sonata XXIII.	!	!	!LO:TX:a:t=Sonata XXIII.	!	!	!	!	!LO:TX:a:t=Sonata XXIII.	!	!LO:TX:a:t=Sonata XXIII.	!LO:TX:a:t=Sonata XXIII.	!	!LO:TX:a:t=Sonata XXIII.	!
!LO:TX:b:t=Adagio.	!	!LO:DY:b:t=Piano	!LO:TX:b:t=Adagio.	!	!LO:DY:b:t=Piano	!LO:TX:b:t=Adagio.	!LO:DY:b:t=Piano.	!LO:TX:b:t=Adagio,	!LO:DY:b:t=piano	!LO:TX:b:t=adagio.	!LO:TX:b:t=Adagio	!	!LO:TX:b:t=Adagio.	!
2.G\	.	p	2.G\	.	p	2.d\	p	2.B-/	p	2.b-/	2g/	.	2.G\	.
.	.	.	.	.	.	.	.	.	.	.	2dd\	.	.	.
!	!	!	!	!	!	!	!	!	!	!	!	!	!	!LO:DY:b:t=Piano
4F\	6	.	4F\	6	.	4d\	.	4f\	.	4a/	.	.	4F\	p
2E-X\	6	.	2E-X\	6	.	2G/	.	2c/	.	2cc\	2gg\	.	2E-X\	.
=2-	=2-	=2-	=2-	=2-	=2-	=2-	=2-	=2-	=2-	=2-	=2-	=2-	=2-	=2-
!LO:TX:t=P:problem:kreska pseudotaktowa	!	!	!	!	!	!LO:TX:t=P:problem:kreska pseudotaktowa	!	!LO:TX:t=P:problem:kreska pseudotaktowa	!	!LO:TX:t=P:problem:kreska pseudotaktowa	!LO:TX:t=P:problem:kreska pseudotaktowa	!LO:DY:b:t=piano,	!LO:TX:t=P:problem:kreska pseudotaktowa	!
1.D	.	.	1.D	.	.	1.A	.	1.d	.	1.a	1.ff#X	p	1.D	.
=3-	=3-	=3-	=3-	=3-	=3-	=3-	=3-	=3-	=3-	=3-	=3-	=3-	=3-	=3-
!	!	!LO:DY:b:t=forte	!	!	!LO:DY:b:t=forte	!	!LO:DY:b:t=forte.	!	!LO:DY:b:t=forte	!	!	!LO:DY:b:t=forte	!	!LO:DY:b:t=forte
2.G\	.	f	2.G\	.	f	2G/	f	2.d\	f	2.b-/	2g/	f	2.G\	f
.	.	.	.	.	.	4B-\	.	.	.	.	2dd\	.	.	.
4F\	6	.	4F\	6	.	4d\	.	4f\	.	4a/	.	.	4F\	.
2E-X\	6	.	2E-X\	6	.	2G/	.	2c/	.	2cc\	2gg\	.	2E-X\	.
=4-	=4-	=4-	=4-	=4-	=4-	=4-	=4-	=4-	=4-	=4-	=4-	=4-	=4-	=4-
2.D/	#	.	2.D/	#	.	1A	.	1d	.	2a/	1ff#X	.	2.D/	.
.	.	.	.	.	.	.	.	.	.	2aa\	.	.	.	.
4C/	.	.	4C/	.	.	.	.	.	.	.	.	.	4C/	.
!LO:TX:t=P:problem:kreska pseudotaktowa	!	!	!LO:TX:t=P:problem:kreska pseudotaktowa	!	!	!	!	!LO:TX:t=P:problem:kreska pseudotaktowa	!	!	!	!	!	!
2BB-/	6 4	.	2BB-/	6 4	.	2B-\	.	2e\	.	2gg\	2gg\	.	2BB-/	.
=5-	=5-	=5-	=5-	=5-	=5-	=5-	=5-	=5-	=5-	=5-	=5-	=5-	=5-	=5-
2AA/	6 #	.	2AA/	6 #	.	2c\	.	2f#X\	.	2ff#X\	2aa\	.	2AA/	.
*	*	*	*	*	*	*	*	*	*	*	*	*	*col	*
!	!	!	!	!	!	!	!	!	!	!LO:TX:t=P:problem:kreska pseudotaktowa	!	!	!LO:TX:t=P:problem:kreska pseudotaktowa	!
*	*	*	*	*	*	*	*	*	*	*	*col	*	*	*
1GG	.	.	1GG	.	.	2.B-\	.	2.d\	.	1gg	1bb-	.	1GG	.
.	.	.	.	.	.	4c\	.	4e\	.	.	.	.	.	.
*	*	*	*	*	*	*	*	*	*	*	*Xcol	*	*Xcol	*
=6-	=6-	=6-	=6-	=6-	=6-	=6-	=6-	=6-	=6-	=6-	=6-	=6-	=6-	=6-
!	!	!	!	!	!	!LO:TX:t=P:problem:kreska pseudotaktowa	!	!	!	!	!	!	!	!
2.D/	.	.	2.D/	.	.	1.d	.	4f#X\	.	1ff#X	2aa\	.	2.D/	.
.	.	.	.	.	.	.	.	4g\	.	.	.	.	.	.
!	!	!	!	!	!	!	!	!LO:TX:t=P:problem:kreska pseudotaktowa	!	!	!	!	!	!
*	*	*	*	*	*	*	*	*col	*	*	*	*	*	*
.	.	.	.	.	.	.	.	1a	.	.	2.dd\	.	.	.
4Eny\	.	.	4Eny\	.	.	.	.	.	.	.	.	.	4Eny\	.
!LO:TX:t=P:problem:kreska pseudotaktowa	!	!	!LO:TX:t=P:problem:kreska pseudotaktowa	!	!	!	!	!	!	!	!	!	!	!
2F#X\	.	.	2F#X\	.	.	.	.	.	.	2.dd\	.	.	2F#X\	.
.	.	.	.	.	.	.	.	.	.	.	4aa\	.	.	.
*	*	*	*	*	*	*	*	*Xcol	*	*	*	*	*	*
=7-	=7-	=7-	=7-	=7-	=7-	=7-	=7-	=7-	=7-	=7-	=7-	=7-	=7-	=7-
2G\	.	.	2G\	.	.	1d	.	2g\	.	.	2bb-\	.	2G\	.
.	.	.	.	.	.	.	.	.	.	4ee\	.	.	.	.
*col	*	*	*col	*	*	*	*	*col	*	*col	*col	*	*col	*
!	!	!	!	!	!	!	!	!	!	!LO:TX:t=P:problem:kreska pseudotaktowa	!LO:TX:t=P:problem:kreska pseudotaktowa	!	!	!
1Fny	6	.	1Fny	6	.	.	.	1d	.	1ffny	1aa	.	1Fny	.
.	.	.	.	.	.	2A/	.	.	.	.	.	.	.	.
*Xcol	*	*	*Xcol	*	*	*	*	*Xcol	*	*Xcol	*Xcol	*	*Xcol	*
=8-	=8-	=8-	=8-	=8-	=8-	=8-	=8-	=8-	=8-	=8-	=8-	=8-	=8-	=8-
2E-X\	.	.	2E-X\	.	.	1B-	.	1.e-X	.	2.b-/	2gg\	.	2E-X\	.
2D/	.	.	2D/	.	.	.	.	.	.	.	2ffny\	.	2D/	.
.	.	.	.	.	.	.	.	.	.	8f/	.	.	.	.
.	.	.	.	.	.	.	.	.	.	8g/	.	.	.	.
2C/	6 -	.	2C/	6 -	.	2c\	.	.	.	2a/	2ee-X\	.	2C/	.
=9-	=9-	=9-	=9-	=9-	=9-	=9-	=9-	=9-	=9-	=9-	=9-	=9-	=9-	=9-
!	!	!	!	!	!	!	!	!	!LO:DY:b:t=piano	!	!	!	!	!
2BB-/	.	.	2BB-/	.	.	1.F	.	2fny\	p	2b-/	2dd\	.	2BB-/	.
*col	*	*	*col	*	*	*	*	*	*	*	*col	*	*col	*
1FF	.	.	1FF	.	.	.	.	2.f\	.	2.b-/	1cc	.	1FF	.
.	.	.	.	.	.	.	.	4c/	.	4a/	.	.	.	.
*Xcol	*	*	*Xcol	*	*	*	*	*	*	*	*Xcol	*	*Xcol	*
=10-	=10-	=10-	=10-	=10-	=10-	=10-	=10-	=10-	=10-	=10-	=10-	=10-	=10-	=10-
!	!	!	!	!	!	!LO:TX:t=P:problem:kreska pseudotaktowa	!	!	!	!	!LO:TX:t=P:problem:kreska pseudotaktowa	!	!	!
1.BB-	.	.	1.BB-	.	.	1.F	.	1.d	.	2b-/	1.b-	.	1.BB-	.
*	*	*	*	*	*	*	*	*	*	*col	*	*	*	*
!	!	!	!	!	!	!	!	!	!	!LO:TX:t=P:problem:kreska pseudotaktowa	!	!	!	!
.	.	.	.	.	.	.	.	.	.	1f	.	.	.	.
*	*	*	*	*	*	*	*	*custos:f	*	*Xcol	*	*	*	*
!	!	!	!	!	!	!	!	!LO:LB:g=original	!	!	!	!	!	!
=11-	=11-	=11-	=11-	=11-	=11-	=11-	=11-	=11-	=11-	=11-	=11-	=11-	=11-	=11-
!	!	!	!	!	!	!	!LO:DY:b:t=piano.	!	!LO:DY:b:t=forte.	!	!	!	!	!LO:DY:b:t=piano
2.B-\	.	.	2.B-\	.	.	2.d\	p	2.f\	f	2.ff\	2b-/	.	2.B-\	p
!	!	!	!	!	!	!	!	!	!	!	!	!LO:DY:b:t=piano	!	!
.	.	.	.	.	.	.	.	.	.	.	2ff\	p	.	.
!	!	!LO:DY:b:t=piano	!	!	!LO:DY:b:t=piano	!	!	!	!	!	!	!	!	!
4A\	6	p	4A\	6	p	4A/	.	4f\	.	4cc\	.	.	4A\	.
2G\	6	.	2G\	6	.	2B-\	.	2eny\	.	2gg\	2bb-\	.	2G\	.
=12-	=12-	=12-	=12-	=12-	=12-	=12-	=12-	=12-	=12-	=12-	=12-	=12-	=12-	=12-
!LO:TX:t=P:problem:kreska pseudotaktowa	!	!	!LO:TX:t=P:problem:kreska pseudotaktowa	!	!	!	!	!	!	!	!	!	!LO:TX:t=P:problem:kreska pseudotaktowa	!
1.F	.	.	1.F	.	.	1.c	.	1.f	.	1.cc	1.aa	.	1.F	.
*	*	*	*	*	*	*	*	*	*	*custos:dd	*	*	*	*
!	!	!	!	!	!	!	!	!	!	!LO:LB:g=original	!	!	!	!
=13-	=13-	=13-	=13-	=13-	=13-	=13-	=13-	=13-	=13-	=13-	=13-	=13-	=13-	=13-
!	!	!LO:DY:b:t=forte	!	!	!LO:DY:b:t=forte	!	!LO:DY:b:t=forte	!	!	!	!	!LO:DY:b:t=forte.	!	!LO:DY:b:t=forte
2.B-\	.	f	2.B-\	.	f	2.B-\	f	2.f\	.	2.dd\	2b-/	f	2.B-\	f
.	.	.	.	.	.	.	.	.	.	.	2ff\	.	.	.
4A\	6	.	4A\	6	.	4c\	.	4f\	.	4cc\	.	.	4A\	.
2G\	6	.	2G\	6	.	2B-\	.	2e\	.	2gg\	2bb-\	.	2G\	.
*	*	*	*	*	*	*	*	*	*	*	*custos:aa	*	*custos:F	*
!	!	!	!	!	!	!	!	!	!	!	!LO:LB:g=original	!	!LO:LB:g=original	!
=14-	=14-	=14-	=14-	=14-	=14-	=14-	=14-	=14-	=14-	=14-	=14-	=14-	=14-	=14-
2.F\	.	.	2.F\	.	.	4c\	.	1f	.	1cc	1aa	.	2.F\	.
.	.	.	.	.	.	4B-\	.	.	.	.	.	.	.	.
.	.	.	.	.	.	4A/	.	.	.	.	.	.	.	.
4E-X\	.	.	4E-X\	.	.	4G/	.	.	.	.	.	.	4E-X\	.
!	!	!	!	!	!	!	!	!LO:TX:t=P:problem:kreska pseudotaktowa	!	!	!	!	!	!
2D/	6	.	2D/	6	.	2F/	.	2f\	.	2dd\	2bb-\	.	2D/	.
*	*	*	*	*	*	*custos:G	*	*	*	*	*	*	*	*
!	!	!	!	!	!	!LO:LB:g=original	!	!	!	!	!	!	!	!
=15-	=15-	=15-	=15-	=15-	=15-	=15-	=15-	=15-	=15-	=15-	=15-	=15-	=15-	=15-
2C/	.	.	2C/	.	.	2G/	.	2e-X\	.	2ee-X\	2ccc\	.	2C/	.
*	*	*	*	*	*	*col	*	*col	*	*col	*col	*	*col	*
1BB-	.	.	1BB-	.	.	1B-	.	1d	.	1ff	1ddd	.	1BB-	.
*	*	*	*	*	*	*Xcol	*	*Xcol	*	*Xcol	*Xcol	*	*Xcol	*
=16-	=16-	=16-	=16-	=16-	=16-	=16-	=16-	=16-	=16-	=16-	=16-	=16-	=16-	=16-
!LO:TX:t=P:problem:kreska pseudotaktowa	!	!	!LO:TX:t=P:problem:kreska pseudotaktowa	!	!	!	!	!	!	!LO:TX:t=P:problem:kreska pseudotaktowa	!LO:TX:t=P:problem:kreska pseudotaktowa	!	!LO:TX:t=P:problem:kreska pseudotaktowa	!
1.F	.	.	1.F	.	.	1.A	.	1f	.	1.ff	1.ccc	.	1.F	.
.	.	.	.	.	.	.	.	2ryy	.	.	.	.	.	.
=17-	=17-	=17-	=17-	=17-	=17-	=17-	=17-	=17-	=17-	=17-	=17-	=17-	=17-	=17-
!	!	!LO:DY:b:t=piano	!	!	!LO:DY:b:t=piano	!	!LO:DY:b:t=piano.	!	!LO:DY:b:t=piano,	!	!	!	!	!LO:DY:b:t=piano
2.E-X\	.	p	2.E-X\	.	p	2.B-\	p	2.g\	p	2.b-/	2e-X/	.	2.E-X\	p
!	!	!	!	!	!	!	!	!	!	!	!	!LO:DY:b:t=piano	!	!
.	.	.	.	.	.	.	.	.	.	.	2b-/	p	.	.
4D/	6	.	4D/	6	.	4B-\	.	4f\	.	4dd\	.	.	4D/	.
2C/	- 6	.	2C/	- 6	.	2c\	.	2e-X\	.	2a/	2ee-X\	.	2C/	.
=18-	=18-	=18-	=18-	=18-	=18-	=18-	=18-	=18-	=18-	=18-	=18-	=18-	=18-	=18-
!LO:TX:t=P:problem:kreska pseudotaktowa	!	!	!LO:TX:t=P:problem:kreska pseudotaktowa	!	!	!	!	!LO:TX:t=P:problem:kreska pseudotaktowa	!	!LO:TX:t=P:problem:kreska pseudotaktowa	!LO:TX:t=P:problem:kreska pseudotaktowa	!	!	!
1.BB-	.	.	1.BB-	.	.	2F/	.	1.f	.	1.b-	1.dd	.	1.BB-	.
*	*	*	*	*	*	*col	*	*	*	*	*	*	*	*
!	!	!	!	!	!	!LO:TX:t=P:problem:kreska pseudotaktowa	!	!	!	!	!	!	!	!
.	.	.	.	.	.	1B-	.	.	.	.	.	.	.	.
*	*	*	*	*	*	*Xcol	*	*	*	*	*	*	*	*
=19-	=19-	=19-	=19-	=19-	=19-	=19-	=19-	=19-	=19-	=19-	=19-	=19-	=19-	=19-
!	!	!LO:DY:b:t=forte	!	!	!LO:DY:b:t=forte	!	!	!	!LO:DY:b:t=forte	!	!	!	!	!LO:DY:b:t=forte
2.E-X\	.	f	2.E-X\	.	f	2.B-\	.	2.g\	f	2.b-/	2e-X/	.	2.E-X\	f
!	!	!	!	!	!	!	!	!	!	!	!	!LO:DY:b:t=forte.	!	!
.	.	.	.	.	.	.	.	.	.	.	2b-/	f	.	.
!	!	!	!	!	!	!	!LO:DY:b:t=forte.	!	!	!	!	!	!	!
4D/	6	.	4D/	6	.	4B-\	f	4f\	.	4dd\	.	.	4D/	.
2C/	6 -	.	2C/	6 -	.	2c\	.	2e-X\	.	2a/	2ee-X\	.	2C/	.
=20-	=20-	=20-	=20-	=20-	=20-	=20-	=20-	=20-	=20-	=20-	=20-	=20-	=20-	=20-
2.BB-/	.	.	2.BB-/	.	.	2F/	.	1f	.	1b-	1dd	.	2.BB-/	.
*	*	*	*	*	*	*col	*	*	*	*	*	*	*	*
.	.	.	.	.	.	1B-	.	.	.	.	.	.	.	.
4AA/	.	.	4AA/	.	.	.	.	.	.	.	.	.	4AA/	.
2GG/	6-r	.	2GG/	6-r	.	.	.	2g\	.	2cc\	2ee-X\	.	2GG/	.
*	*	*	*	*	*	*Xcol	*	*	*	*	*	*	*	*
=21-	=21-	=21-	=21-	=21-	=21-	=21-	=21-	=21-	=21-	=21-	=21-	=21-	=21-	=21-
2FF/	6	.	2FF/	6	.	2A/	.	1d	.	2dd\	2ff\	.	2FF/	.
*	*	*	*	*	*	*col	*	*	*	*col	*col	*	*col	*
1EE-X	7:6	.	1EE-X	7:6	.	1G	.	.	.	1ee-X	1gg	.	1EE-X	.
.	.	.	.	.	.	.	.	2c/	.	.	.	.	.	.
*	*	*	*	*	*	*Xcol	*	*	*	*Xcol	*Xcol	*	*Xcol	*
=22-	=22-	=22-	=22-	=22-	=22-	=22-	=22-	=22-	=22-	=22-	=22-	=22-	=22-	=22-
!LO:TX:t=P:problem:kreska pseudotaktowa	!	!	!LO:TX:t=P:problem:kreska pseudotaktowa	!	!	!LO:TX:t=P:problem:kreska pseudotaktowa	!	!LO:TX:t=P:problem:kreska pseudotaktowa	!	!LO:TX:t=P:problem:kreska pseudotaktowa	!LO:TX:t=P:problem:kreska pseudotaktowa	!	!	!
1.DD	#	.	1.DD	#	.	1.A	.	1.d	.	1.a	1.ff#X	.	1.DD	.
=23-	=23-	=23-	=23-	=23-	=23-	=23-	=23-	=23-	=23-	=23-	=23-	=23-	=23-	=23-
!LO:N:acc=#	!	!	!LO:N:acc=#	!	!	!LO:N:acc=#	!	!	!	!	!	!	!LO:SIC:v:s=2BB/	!
1.BBn	.	.	1.BBn	.	.	2Bn\	.	2d\	.	2dd\	2gg\	.	2BB-/	.
!	!	!	!	!	!	!	!	!	!	!	!	!	!LO:SIC:v:s=2BB/	!
.	.	.	.	.	.	2d\	.	2g\	.	2dd\	2gg\	.	2BB-/	.
!	!	!	!	!	!	!	!	!	!	!	!	!	!LO:SIC:v:s=2BB/	!
.	.	.	.	.	.	2d\	.	2g\	.	2dd\	2gg\	.	2BB-/	.
=24-	=24-	=24-	=24-	=24-	=24-	=24-	=24-	=24-	=24-	=24-	=24-	=24-	=24-	=24-
!LO:TX:t=P:problem:kreska pseudotaktowa	!	!	!LO:TX:t=P:problem:kreska pseudotaktowa	!	!	!	!	!	!	!	!	!	!	!
1.C	.	.	1.C	.	.	1.G	.	1.g	.	1.cc	1.eeny	.	1.C	.
*	*	*	*	*	*	*	*	*custos:e	*	*	*	*	*	*
!	!	!	!	!	!	!	!	!LO:LB:g=original	!	!	!	!	!	!
=25-	=25-	=25-	=25-	=25-	=25-	=25-	=25-	=25-	=25-	=25-	=25-	=25-	=25-	=25-
1.C#X	.	.	1.C#X	.	.	2A/	.	2eny\	.	2eeny\	2aa\	.	2C#X/	.
.	.	.	.	.	.	2A/	.	2a\	.	2ee\	2aa\	.	2C#/	.
.	.	.	.	.	.	2A/	.	2e\	.	2ee\	2aa\	.	2C#/	.
=26-	=26-	=26-	=26-	=26-	=26-	=26-	=26-	=26-	=26-	=26-	=26-	=26-	=26-	=26-
2D/	.	.	2D/	.	.	1A	.	2f\	.	1dd	1ffny	.	2D/	.
*col	*	*	*col	*	*	*	*	*col	*	*	*	*	*col	*
1AA	6:5 4:3	.	1AA	6:5 4:3	.	.	.	1a	.	.	.	.	1AA	.
!	!	!	!	!	!	!LO:TX:t=P:problem:kreska pseudotaktowa	!	!	!	!LO:TX:t=P:problem:kreska pseudotaktowa	!	!	!	!
.	.	.	.	.	.	2c\	.	.	.	2cc\	2ee-X\	.	.	.
*Xcol	*	*	*Xcol	*	*	*	*	*Xcol	*	*	*	*	*Xcol	*
=27-	=27-	=27-	=27-	=27-	=27-	=27-	=27-	=27-	=27-	=27-	=27-	=27-	=27-	=27-
2BB-y/	.	.	2BB-y/	.	.	1F	.	2d\	.	1b-	1dd	.	2BB-/	.
*col	*	*	*col	*	*	*	*	*col	*	*	*	*	*col	*
1FF	6:5 4:3	.	1FF	6:5 4:3	.	.	.	1f	.	.	.	.	1FF	.
!	!	!	!	!	!	!	!	!	!	!	!LO:TX:t=P:problem:kreska pseudotaktowa	!	!	!
.	.	.	.	.	.	2A/	.	.	.	2a/	2cc\	.	.	.
*Xcol	*	*	*Xcol	*	*	*	*	*Xcol	*	*	*	*	*Xcol	*
=28-	=28-	=28-	=28-	=28-	=28-	=28-	=28-	=28-	=28-	=28-	=28-	=28-	=28-	=28-
2GG/	.	.	2GG/	.	.	2B-y\	.	2d\	.	2g/	2b-/	.	2GG/	.
*	*	*	*	*	*	*	*	*	*	*	*col	*	*	*
2AA/	.	.	2AA/	.	.	2c\	.	2c/	.	2f/	1a	.	2AA/	.
*	*	*	*	*	*	*	*	*	*	*custos:d	*	*	*	*
!	!	!	!	!	!	!LO:TX:t=P:problem:kreska pseudotaktowa	!	!LO:TX:t=P:problem:kreska pseudotaktowa	!	!LO:LB:g=original	!	!	!	!
*	*	*	*	*	*	*	*	*	*	*col	*	*	*	*
2FF/	.	.	2FF/	.	.	2.d\	.	2A/	.	1d/	.	.	2FF/	.
*custos:DD	*	*	*custos:DD	*	*	*	*	*	*	*Xcol	*Xcol	*	*custos:DD	*
!LO:LB:g=original	!	!	!LO:LB:g=original	!	!	!	!	!	!	!	!	!	!LO:LB:g=original	!
=29-	=29-	=29-	=29-	=29-	=29-	=29-	=29-	=29-	=29-	=29-	=29-	=29-	=29-	=29-
2DD/	.	.	2DD/	.	.	.	.	1.A	.	.	2f/	.	2DD/	.
.	.	.	.	.	.	4D/	.	.	.	.	.	.	.	.
*col	*	*	*col	*	*	*col	*	*	*	*col	*col	*	*col	*
1AA	4#r	.	1AA	4#r	.	1E	.	.	.	1c#X	1eny	.	1AA	.
*Xcol	*	*	*Xcol	*	*	*Xcol	*	*	*	*Xcol	*Xcol	*	*Xcol	*
=30-	=30-	=30-	=30-	=30-	=30-	=30-	=30-	=30-	=30-	=30-	=30-	=30-	=30-	=30-
!LO:TX:t=P:problem:kreska pseudotaktowa	!	!	!LO:TX:t=P:problem:kreska pseudotaktowa	!	!	!	!	!	!	!LO:TX:t=P:problem:kreska pseudotaktowa	!	!	!LO:TX:t=P:problem:kreska pseudotaktowa	!
1.DD	.	.	1.DD	.	.	1.F#X	.	1A	.	1.d	1.d	.	1.DD	.
!	!	!	!	!	!	!	!	!LO:TX:t=P:problem:kreska pseudotaktowa	!	!	!	!	!	!
.	.	.	.	.	.	.	.	2ryy	.	.	.	.	.	.
*	*	*	*	*	*	*custos:G	*	*	*	*	*custos:ccc	*	*	*
!	!	!	!	!	!	!LO:LB:g=original	!	!	!	!	!LO:LB:g=original	!	!	!
=31-	=31-	=31-	=31-	=31-	=31-	=31-	=31-	=31-	=31-	=31-	=31-	=31-	=31-	=31-
1.Eny	6	.	1.Eny	6	.	2G/	.	2e\	.	2gg\	2ccc\	.	2Eny\	.
.	.	.	.	.	.	2G/	.	2g\	.	2gg\	2ccc\	.	2E\	.
.	.	.	.	.	.	2c\	.	2g\	.	2gg\	2ccc\	.	2E\	.
=32-	=32-	=32-	=32-	=32-	=32-	=32-	=32-	=32-	=32-	=32-	=32-	=32-	=32-	=32-
!	!	!	!	!	!	!LO:TX:t=P:problem:kreska pseudotaktowa	!	!	!	!	!	!	!	!
1.F	.	.	1.F	.	.	1.c	.	1.a	.	1.ff	1.aa	.	1.F	.
=33-	=33-	=33-	=33-	=33-	=33-	=33-	=33-	=33-	=33-	=33-	=33-	=33-	=33-	=33-
1.F#X	.	.	1.F#X	.	.	2A/	.	2d\	.	2aa\	2ddd\	.	2F#X\	.
.	.	.	.	.	.	2A/	.	2d\	.	2aa\	2ddd\	.	2F#\	.
.	.	.	.	.	.	2A/	.	2d\	.	2aa\	2ddd\	.	2F#\	.
=34-	=34-	=34-	=34-	=34-	=34-	=34-	=34-	=34-	=34-	=34-	=34-	=34-	=34-	=34-
2G\	.	.	2G\	.	.	2B-\	.	1d	.	1gg	1bb-	.	2G\	.
*col	*	*	*col	*	*	*col	*	*	*	*	*	*	*col	*
1D	6:5 4:3	.	1D	6:5 4:3	.	1d	.	.	.	.	.	.	1D	.
.	.	.	.	.	.	.	.	2f\	.	2ff\	2aa\	.	.	.
*Xcol	*	*	*Xcol	*	*	*Xcol	*	*	*	*	*	*	*Xcol	*
=35-	=35-	=35-	=35-	=35-	=35-	=35-	=35-	=35-	=35-	=35-	=35-	=35-	=35-	=35-
2E-X\	.	.	2E-X\	.	.	2G/	.	1B-	.	1ee-X	1gg	.	2E-X\	.
*col	*	*	*col	*	*	*col	*	*	*	*	*	*	*col	*
1BB-	6:5 4:3	.	1BB-	6:5 4:3	.	1B-	.	.	.	.	.	.	1BB-	.
.	.	.	.	.	.	.	.	2d\	.	2dd\	2ff\	.	.	.
*Xcol	*	*	*Xcol	*	*	*Xcol	*	*	*	*	*	*	*Xcol	*
=36-	=36-	=36-	=36-	=36-	=36-	=36-	=36-	=36-	=36-	=36-	=36-	=36-	=36-	=36-
2Cny/	-	.	2Cny/	-	.	2G/	.	2e-X\	.	2cc\	2ee-X\	.	2Cny/	.
*	*	*	*	*	*	*	*	*	*	*	*col	*	*	*
2D/	6	.	2D/	6	.	2Fny/	.	2f\	.	2b-/	1dd	.	2D/	.
!	!	!	!	!	!	!	!	!LO:TX:t=P:problem:kreska pseudotaktowa	!	!	!	!	!LO:TX:t=P:problem:kreska pseudotaktowa	!
*	*	*	*	*	*	*	*	*	*	*col	*	*	*	*
2BB-/	6	.	2BB-/	6	.	2D/	.	2g\	.	1g/	.	.	2BB-/	.
*	*	*	*	*	*	*	*	*	*	*Xcol	*Xcol	*	*	*
=37-	=37-	=37-	=37-	=37-	=37-	=37-	=37-	=37-	=37-	=37-	=37-	=37-	=37-	=37-
2GG/	.	.	2GG/	.	.	1.D	.	2G/	.	.	2b-/	.	2GG/	.
*col	*	*	*col	*	*	*	*	*col	*	*col	*col	*	*col	*
1DD	4#r	.	1DD	4#r	.	.	.	1A	.	1f#X	1a	.	1DD	.
*Xcol	*	*	*Xcol	*	*	*	*	*Xcol	*	*Xcol	*Xcol	*	*Xcol	*
=38-	=38-	=38-	=38-	=38-	=38-	=38-	=38-	=38-	=38-	=38-	=38-	=38-	=38-	=38-
!	!	!	!	!	!	!	!	!LO:N:acc=#	!	!	!	!	!	!
1.GG	.	.	1.GG	.	.	1.D	.	1.Bn	.	1.g	1.g	.	1.GG	.
=39:|!|:-	=39:|!|:-	=39:|!|:-	=39:|!|:-	=39:|!|:-	=39:|!|:-	=39:|!|:-	=39:|!|:-	=39:|!|:-	=39:|!|:-	=39:|!|:-	=39:|!|:-	=39:|!|:-	=39:|!|:-	=39:|!|:-
2G\	.	.	2G\	.	.	4r	.	1.r	.	1.r	4r	.	00.r	.
.	.	.	.	.	.	8G/	.	.	.	.	8b-/	.	.	.
.	.	.	.	.	.	8A/	.	.	.	.	8cc\	.	.	.
1B-	.	.	1B-	.	.	4B-\	.	.	.	.	4dd\	.	.	.
.	.	.	.	.	.	4B-\	.	.	.	.	4dd\	.	.	.
.	.	.	.	.	.	4B-\	.	.	.	.	4dd\	.	.	.
.	.	.	.	.	.	8A/	.	.	.	.	8cc\	.	.	.
.	.	.	.	.	.	8B-\	.	.	.	.	8dd\	.	.	.
=40-	=40-	=40-	=40-	=40-	=40-	=40-	=40-	=40-	=40-	=40-	=40-	=40-	=40-	=40-
2c\	-	.	2c\	-	.	2c\	.	2c/	.	4r	2ee-X\	.	.	.
.	.	.	.	.	.	.	.	.	.	8g/	.	.	.	.
.	.	.	.	.	.	.	.	.	.	8a/	.	.	.	.
*	*	*	*	*	*	*col	*	*col	*	*	*col	*	*	*
1B-	.	.	1B-	.	.	1B-	.	1d	.	4b-/	1dd	.	.	.
.	.	.	.	.	.	.	.	.	.	4b-/	.	.	.	.
.	.	.	.	.	.	.	.	.	.	4b-/	.	.	.	.
.	.	.	.	.	.	.	.	.	.	8a/	.	.	.	.
.	.	.	.	.	.	.	.	.	.	8b-/	.	.	.	.
*	*	*	*	*	*	*Xcol	*	*Xcol	*	*	*Xcol	*	*	*
=41-	=41-	=41-	=41-	=41-	=41-	=41-	=41-	=41-	=41-	=41-	=41-	=41-	=41-	=41-
2A\	5	.	2A\	5	.	2A/	.	4eny\	.	2cc\	2cc\	.	.	.
.	.	.	.	.	.	.	.	8e\	.	.	.	.	.	.
.	.	.	.	.	.	.	.	8f\	.	.	.	.	.	.
*	*	*	*	*	*	*col	*	*	*	*col	*col	*	*	*
1G	.	.	1G	.	.	1G	.	4g\	.	1b-	1gg	.	.	.
.	.	.	.	.	.	.	.	4g\	.	.	.	.	.	.
.	.	.	.	.	.	.	.	4g\	.	.	.	.	.	.
.	.	.	.	.	.	.	.	8f\	.	.	.	.	.	.
.	.	.	.	.	.	.	.	8g\	.	.	.	.	.	.
*	*	*	*	*	*	*Xcol	*	*	*	*Xcol	*Xcol	*	*	*
=42-	=42-	=42-	=42-	=42-	=42-	=42-	=42-	=42-	=42-	=42-	=42-	=42-	=42-	=42-
!LO:TX:t=P:problem:kreska pseudotaktowa	!	!	!LO:TX:t=P:problem:kreska pseudotaktowa	!	!	!LO:TX:t=P:problem:kreska pseudotaktowa	!	!	!	!	!	!	!	!
1.D	#	.	1.D	#	.	1.D	.	1a	.	1.dd	1.ff#X	.	.	.
!	!	!	!	!	!	!	!	!LO:TX:t=P:problem:kreska pseudotaktowa	!	!	!	!	!	!
.	.	.	.	.	.	.	.	2r	.	.	.	.	.	.
*	*	*	*	*	*	*	*	*	*	*custos:f	*	*	*	*
!	!	!	!	!	!	!	!	!	!	!LO:LB:g=original	!	!	!	!
=43-	=43-	=43-	=43-	=43-	=43-	=43-	=43-	=43-	=43-	=43-	=43-	=43-	=43-	=43-
2D/	.	.	2D/	.	.	4r	.	1.r	.	4r	0.r	.	1.r	.
.	.	.	.	.	.	8D/	.	.	.	8fny/	.	.	.	.
.	.	.	.	.	.	8E/	.	.	.	8g/	.	.	.	.
*col	*	*	*col	*	*	*	*	*	*	*	*	*	*	*
1F#X	.	.	1F#X	.	.	4F#X/	.	.	.	4a/	.	.	.	.
.	.	.	.	.	.	4F#/	.	.	.	4a/	.	.	.	.
.	.	.	.	.	.	4F#/	.	.	.	4a/	.	.	.	.
.	.	.	.	.	.	8E/	.	.	.	8g/	.	.	.	.
.	.	.	.	.	.	8F#X/	.	.	.	8a/	.	.	.	.
*Xcol	*	*	*Xcol	*	*	*	*	*	*	*	*	*	*	*
=44-	=44-	=44-	=44-	=44-	=44-	=44-	=44-	=44-	=44-	=44-	=44-	=44-	=44-	=44-
!	!	!	!	!	!	!	!	!	!	!LO:N:acc=#	!	!	!	!
2G\	#	.	2G\	#	.	1G	.	4r	.	1bn	.	.	4r	.
!	!	!	!	!	!	!	!	!LO:N:acc=#	!	!	!	!	!	!
.	.	.	.	.	.	.	.	8Bn/	.	.	.	.	8GG/	.
.	.	.	.	.	.	.	.	8c/	.	.	.	.	8AA/	.
*col	*	*	*col	*	*	*	*	*	*	*	*	*	*	*
!LO:TX:t=P:problem:kreska pseudotaktowa	!	!	!LO:TX:t=P:problem:kreska pseudotaktowa	!	!	!	!	!	!	!	!	!	!LO:N:acc=#	!
!LO:N:acc=#	!	!	!LO:N:acc=#	!	!	!	!	!	!	!	!	!	!	!
1BBn	.	.	1BBn	.	.	.	.	4d\	.	.	.	.	4BBn/	.
.	.	.	.	.	.	.	.	4d\	.	.	.	.	4BB/	.
.	.	.	.	.	.	2r	.	4d\	.	2r	.	.	4BB/	.
.	.	.	.	.	.	.	.	8c/	.	.	.	.	8AA/	.
!	!	!	!	!	!	!	!	!LO:TX:t=P:problem:kreska pseudotaktowa	!	!	!	!	!LO:TX:t=P:problem:kreska pseudotaktowa	!
!	!	!	!	!	!	!	!	!	!	!	!	!	!LO:N:acc=#	!
.	.	.	.	.	.	.	.	8d\	.	.	.	.	8BBn/	.
*Xcol	*	*	*Xcol	*	*	*custos:F	*	*	*	*	*	*	*	*
!	!	!	!	!	!	!LO:LB:g=original	!	!	!	!	!	!	!	!
=45-	=45-	=45-	=45-	=45-	=45-	=45-	=45-	=45-	=45-	=45-	=45-	=45-	=45-	=45-
2C/	.	.	2C/	.	.	1.r	.	4.e\	.	1.r	4r	.	4C/	.
.	.	.	.	.	.	.	.	.	.	.	8eeny\	.	8C/	.
.	.	.	.	.	.	.	.	8d\	.	.	8ffny\	.	8D/	.
*col	*	*	*col	*	*	*	*	*	*	*	*	*	*	*
1Eny	6	.	1Eny	6	.	.	.	2c/	.	.	4gg\	.	4Eny\	.
.	.	.	.	.	.	.	.	.	.	.	4gg\	.	4E\	.
*	*	*	*	*	*	*	*	*	*	*	*	*	*custos:E	*
!	!	!	!	!	!	!	!	!	!	!	!	!	!LO:LB:g=original	!
.	.	.	.	.	.	.	.	2c/	.	.	4gg\	.	4E\	.
.	.	.	.	.	.	.	.	.	.	.	8ff\	.	8D/	.
.	.	.	.	.	.	.	.	.	.	.	8gg\	.	8E\	.
*Xcol	*	*	*Xcol	*	*	*	*	*	*	*	*custos:aa	*	*	*
!	!	!	!	!	!	!	!	!	!	!	!LO:LB:g=original	!	!	!
=46-	=46-	=46-	=46-	=46-	=46-	=46-	=46-	=46-	=46-	=46-	=46-	=46-	=46-	=46-
1.Fny	.	.	1.Fny	.	.	4r	.	1A	.	4r	1aa	.	1Fny	.
.	.	.	.	.	.	8Fny/	.	.	.	8a/	.	.	.	.
.	.	.	.	.	.	8G/	.	.	.	8b-/	.	.	.	.
.	.	.	.	.	.	4A/	.	.	.	4cc\	.	.	.	.
.	.	.	.	.	.	4A/	.	.	.	4cc\	.	.	.	.
!	!	!	!	!	!	!	!	!	!	!	!LO:TX:t=P:problem:kreska pseudotaktowa	!	!	!
.	.	.	.	.	.	4A/	.	2r	.	4cc\	2r	.	2r	.
.	.	.	.	.	.	8G/	.	.	.	8b-/	.	.	.	.
.	.	.	.	.	.	8A/	.	.	.	8cc\	.	.	.	.
=47-	=47-	=47-	=47-	=47-	=47-	=47-	=47-	=47-	=47-	=47-	=47-	=47-	=47-	=47-
2BB-y/	.	.	2BB-y/	.	.	2B-\	.	1.r	.	1dd	4r	.	4r	.
.	.	.	.	.	.	.	.	.	.	.	8dd\	.	8BB-y/	.
.	.	.	.	.	.	.	.	.	.	.	8ee\	.	8C/	.
*col	*	*	*col	*	*	*col	*	*	*	*	*	*	*	*
1D	.	.	1D	.	.	1A	.	.	.	.	4ff\	.	4D/	.
.	.	.	.	.	.	.	.	.	.	.	4ff\	.	4D/	.
!	!	!	!	!	!	!	!	!	!	!LO:TX:t=P:problem:kreska pseudotaktowa	!	!	!	!
.	.	.	.	.	.	.	.	.	.	2r	4ff\	.	4D/	.
.	.	.	.	.	.	.	.	.	.	.	8ee\	.	8C/	.
.	.	.	.	.	.	.	.	.	.	.	8ff\	.	8D/	.
*Xcol	*	*	*Xcol	*	*	*	*	*	*	*	*	*	*	*
*custos:E	*	*	*custos:E	*	*	*Xcol	*	*custos:a	*	*	*	*	*	*
!LO:LB:g=original	!	!	!LO:LB:g=original	!	!	!	!	!LO:LB:g=original	!	!	!	!	!	!
=48-	=48-	=48-	=48-	=48-	=48-	=48-	=48-	=48-	=48-	=48-	=48-	=48-	=48-	=48-
!	!	!	!	!	!	!	!	!	!	!	!	!	!LO:SIC:v:s=2E\	!
2E\	.	.	2E\	.	.	2G/	.	4r	.	4r	2gg\	.	2E-X\	.
.	.	.	.	.	.	.	.	8B-y/	.	8g/	.	.	.	.
.	.	.	.	.	.	.	.	8c/	.	8a/	.	.	.	.
*col	*	*	*col	*	*	*	*	*	*	*	*col	*	*col	*
!	!	!	!	!	!	!	!	!	!	!	!	!	!LO:TX:t=P:problem:kreska pseudotaktowa	!
1D	6	.	1D	6	.	2r	.	4d\	.	4b-/	1ff	.	1D	.
.	.	.	.	.	.	.	.	4d\	.	4b-/	.	.	.	.
!	!	!	!	!	!	!LO:TX:t=P:problem:kreska pseudotaktowa	!	!	!	!	!	!	!	!
.	.	.	.	.	.	2r	.	4d\	.	4b-/	.	.	.	.
.	.	.	.	.	.	.	.	8c/	.	8a/	.	.	.	.
.	.	.	.	.	.	.	.	8d\	.	8b-/	.	.	.	.
*Xcol	*	*	*Xcol	*	*	*	*	*	*	*	*Xcol	*	*Xcol	*
=49-	=49-	=49-	=49-	=49-	=49-	=49-	=49-	=49-	=49-	=49-	=49-	=49-	=49-	=49-
2C/	-	.	2C/	-	.	2G/	.	2e-X\	.	2cc\	2ee-X\	.	2C/	.
*col	*	*	*col	*	*	*col	*	*col	*	*col	*col	*	*col	*
!LO:TX:t=P:problem:kreska pseudotaktowa	!	!	!LO:TX:t=P:problem:kreska pseudotaktowa	!	!	!	!	!	!	!LO:TX:t=P:problem:kreska pseudotaktowa	!	!	!	!
1BB-	.	.	1BB-	.	.	1d	.	1B-	.	1f	1dd	.	1BB-	.
*Xcol	*	*	*Xcol	*	*	*Xcol	*	*Xcol	*	*Xcol	*Xcol	*	*Xcol	*
=50-	=50-	=50-	=50-	=50-	=50-	=50-	=50-	=50-	=50-	=50-	=50-	=50-	=50-	=50-
2B-\	.	.	2B-\	.	.	2d\	.	4d\	.	4r	1.r	.	2B-\	.
.	.	.	.	.	.	.	.	8d\	.	8f/	.	.	.	.
.	.	.	.	.	.	.	.	8eny\	.	8g/	.	.	.	.
*col	*	*	*col	*	*	*col	*	*	*	*	*	*	*col	*
1A	6	.	1A	6	.	1c	.	4f\	.	4a/	.	.	1A	.
.	.	.	.	.	.	.	.	4f\	.	4a/	.	.	.	.
.	.	.	.	.	.	.	.	4f\	.	4a/	.	.	.	.
.	.	.	.	.	.	.	.	8e\	.	8g/	.	.	.	.
!	!	!	!	!	!	!	!	!LO:TX:t=P:problem:kreska pseudotaktowa	!	!	!	!	!	!
.	.	.	.	.	.	.	.	8f\	.	8a/	.	.	.	.
*Xcol	*	*	*Xcol	*	*	*Xcol	*	*	*	*	*	*	*Xcol	*
=51-	=51-	=51-	=51-	=51-	=51-	=51-	=51-	=51-	=51-	=51-	=51-	=51-	=51-	=51-
2G\	.	.	2G\	.	.	2B-\	.	2g\	.	2b-/	4r	.	2G\	.
.	.	.	.	.	.	.	.	.	.	.	8dd\	.	.	.
.	.	.	.	.	.	.	.	.	.	.	8eeny\	.	.	.
*col	*	*	*col	*	*	*col	*	*	*	*col	*	*	*col	*
!LO:TX:t=P:problem:kreska pseudotaktowa	!	!	!LO:TX:t=P:problem:kreska pseudotaktowa	!	!	!	!	!	!	!	!	!	!LO:TX:t=P:problem:kreska pseudotaktowa	!
1F	5	.	1F	5	.	1f	.	1c	.	1a	4ff\	.	1F	.
.	.	.	.	.	.	.	.	.	.	.	4ff\	.	.	.
.	.	.	.	.	.	.	.	.	.	.	4ff\	.	.	.
.	.	.	.	.	.	.	.	.	.	.	8ee\	.	.	.
.	.	.	.	.	.	.	.	.	.	.	8ff\	.	.	.
*	*	*	*	*	*	*Xcol	*	*	*	*Xcol	*	*	*	*
*Xcol	*	*	*Xcol	*	*	*	*	*	*	*custos:g	*	*	*Xcol	*
!	!	!	!	!	!	!	!	!	!	!LO:LB:g=original	!	!	!	!
=52-	=52-	=52-	=52-	=52-	=52-	=52-	=52-	=52-	=52-	=52-	=52-	=52-	=52-	=52-
!	!	!	!	!	!	!	!	!LO:TX:t=P:problem:kreska pseudotaktowa	!	!	!	!	!	!
2E-X\	.	.	2E-X\	.	.	4B-\	.	1.r	.	4g/	2gg\	.	2E-X\	.
.	.	.	.	.	.	8B-\	.	.	.	8g/	.	.	.	.
.	.	.	.	.	.	8c\	.	.	.	8a/	.	.	.	.
*col	*	*	*col	*	*	*	*	*	*	*	*col	*	*col	*
1D	6	.	1D	6	.	4d\	.	.	.	4b-/	1ff	.	1D	.
.	.	.	.	.	.	4d\	.	.	.	4b-/	.	.	.	.
.	.	.	.	.	.	4d\	.	.	.	4b-/	.	.	.	.
.	.	.	.	.	.	8c\	.	.	.	8a/	.	.	.	.
!	!	!	!	!	!	!LO:TX:t=P:problem:kreska pseudotaktowa	!	!	!	!	!	!	!	!
.	.	.	.	.	.	8d\	.	.	.	8b-/	.	.	.	.
*Xcol	*	*	*Xcol	*	*	*	*	*	*	*	*Xcol	*	*Xcol	*
=53-	=53-	=53-	=53-	=53-	=53-	=53-	=53-	=53-	=53-	=53-	=53-	=53-	=53-	=53-
2C/	-	.	2C/	-	.	4e-X\	.	4r	.	2cc\	2ee-X\	.	2C/	.
.	.	.	.	.	.	8G/	.	8e-X\	.	.	.	.	.	.
.	.	.	.	.	.	8A/	.	8f\	.	.	.	.	.	.
*col	*	*	*col	*	*	*	*	*	*	*	*col	*	*col	*
!LO:TX:t=P:problem:kreska pseudotaktowa	!	!	!LO:TX:t=P:problem:kreska pseudotaktowa	!	!	!	!	!	!	!	!LO:TX:t=P:problem:kreska pseudotaktowa	!	!LO:TX:t=P:problem:kreska pseudotaktowa	!
1BB-	6	.	1BB-	6	.	4B-\	.	4g\	.	2r	1dd	.	1BB-	.
.	.	.	.	.	.	4B-\	.	4g\	.	.	.	.	.	.
!	!	!	!	!	!	!	!	!	!	!LO:TX:t=P:problem:kreska pseudotaktowa	!	!	!	!
.	.	.	.	.	.	4B-\	.	4g\	.	2r	.	.	.	.
.	.	.	.	.	.	8A/	.	8f\	.	.	.	.	.	.
.	.	.	.	.	.	8B-\	.	8g\	.	.	.	.	.	.
*Xcol	*	*	*Xcol	*	*	*	*	*	*	*	*Xcol	*	*Xcol	*
=54-	=54-	=54-	=54-	=54-	=54-	=54-	=54-	=54-	=54-	=54-	=54-	=54-	=54-	=54-
2AA/	.	.	2AA/	.	.	2c\	.	2a\	.	4r	4cc\	.	2AA/	.
.	.	.	.	.	.	.	.	.	.	4a/	8eeny\	.	.	.
.	.	.	.	.	.	.	.	.	.	.	8ff\	.	.	.
!	!	!	!	!	!	!	!	!\	!	!	!	!	!	!
*col	*	*	*col	*	*	*col	*	*	*	*	*	*	*col	*
1GG	5	.	1GG	5	.	1B-	.	1d	.	4b-/	4gg\	.	1GG	.
.	.	.	.	.	.	.	.	.	.	4b-/	4gg\	.	.	.
.	.	.	.	.	.	.	.	.	.	4b-/	4gg\	.	.	.
.	.	.	.	.	.	.	.	.	.	8a/	8ff\	.	.	.
.	.	.	.	.	.	.	.	.	.	8b-/	8gg\	.	.	.
*Xcol	*	*	*Xcol	*	*	*Xcol	*	*custos:f	*	*	*	*	*Xcol	*
!	!	!	!	!	!	!	!	!LO:LB:g=original	!	!	!	!	!	!
=55-	=55-	=55-	=55-	=55-	=55-	=55-	=55-	=55-	=55-	=55-	=55-	=55-	=55-	=55-
2FF/	.	.	2FF/	.	.	2A/	.	1f	.	2cc\	2aa\	.	2FF/	.
*	*	*	*	*	*	*	*	*	*	*col	*	*	*col	*
*col	*	*	*col	*	*	*col	*	*	*	*	*	*	*	*
1C	4:3	.	1C	4:3	.	1c	.	.	.	1cc	1gg	.	1C	.
.	.	.	.	.	.	.	.	2eny\	.	.	.	.	.	.
*	*	*	*	*	*	*Xcol	*	*	*	*Xcol	*	*	*Xcol	*
*Xcol	*	*	*Xcol	*	*	*custos:c	*	*	*	*	*	*	*	*
!	!	!	!	!	!	!LO:LB:g=original	!	!	!	!	!	!	!	!
=56-	=56-	=56-	=56-	=56-	=56-	=56-	=56-	=56-	=56-	=56-	=56-	=56-	=56-	=56-
1FF	.	.	1FF	.	.	4c\	.	1f	.	1a	1ff	.	4FF/	.
.	.	.	.	.	.	8A/	.	.	.	.	.	.	8F\	.
.	.	.	.	.	.	8B-\	.	.	.	.	.	.	8G\	.
.	.	.	.	.	.	4c\	.	.	.	.	.	.	4A\	.
.	.	.	.	.	.	4c\	.	.	.	.	.	.	4A\	.
!LO:TX:t=P:problem:kreska pseudotaktowa	!	!	!LO:TX:t=P:problem:kreska pseudotaktowa	!	!	!	!	!LO:TX:t=P:problem:kreska pseudotaktowa	!	!LO:TX:t=P:problem:kreska pseudotaktowa	!LO:TX:t=P:problem:kreska pseudotaktowa	!	!	!
2F\	.	.	2F\	.	.	4c\	.	2r	.	2r	2r	.	4A\	.
.	.	.	.	.	.	8B-\	.	.	.	.	.	.	8G\	.
!	!	!	!	!	!	!LO:TX:t=P:problem:kreska pseudotaktowa	!	!	!	!	!	!	!	!
.	.	.	.	.	.	8c\	.	.	.	.	.	.	8A\	.
=57-	=57-	=57-	=57-	=57-	=57-	=57-	=57-	=57-	=57-	=57-	=57-	=57-	=57-	=57-
2B-\	.	.	2B-\	.	.	2d\	.	1.r	.	4r	4r	.	2B-\	.
.	.	.	.	.	.	.	.	.	.	8dd\	8ff\	.	.	.
.	.	.	.	.	.	.	.	.	.	8eeny\	8gg\	.	.	.
*col	*	*	*col	*	*	*col	*	*	*	*	*	*	*col	*
1A	6	.	1A	6	.	1c	.	.	.	4ff\	4aa\	.	1A	.
.	.	.	.	.	.	.	.	.	.	4ff\	4aa\	.	.	.
*	*	*	*	*	*	*	*	*	*	*	*custos:aa	*	*	*
!	!	!	!	!	!	!	!	!	!	!	!LO:LB:g=original	!	!	!
.	.	.	.	.	.	.	.	.	.	4ff\	4aa\	.	.	.
.	.	.	.	.	.	.	.	.	.	8ee\	8gg\	.	.	.
.	.	.	.	.	.	.	.	.	.	8ff\	8aa\	.	.	.
*	*	*	*	*	*	*Xcol	*	*	*	*	*	*	*Xcol	*
*Xcol	*	*	*Xcol	*	*	*	*	*	*	*	*	*	*custos:G	*
!	!	!	!	!	!	!	!	!	!	!	!	!	!LO:LB:g=original	!
=58-	=58-	=58-	=58-	=58-	=58-	=58-	=58-	=58-	=58-	=58-	=58-	=58-	=58-	=58-
2G\	.	.	2G\	.	.	4B-\	.	4r	.	2gg\	2bb-\	.	2G\	.
.	.	.	.	.	.	8B-\	.	8d\	.	.	.	.	.	.
.	.	.	.	.	.	8c\	.	8e\	.	.	.	.	.	.
!	!	!	!	!	!	!	!	!	!	!LO:TX:t=P:problem:kreska pseudotaktowa	!	!	!	!
*col	*	*	*col	*	*	*	*	*	*	*col	*col	*	*col	*
1F	6	.	1F	6	.	4d\	.	4f\	.	1dd	1aa	.	1F	.
.	.	.	.	.	.	4d\	.	4f\	.	.	.	.	.	.
.	.	.	.	.	.	4d\	.	4f\	.	.	.	.	.	.
.	.	.	.	.	.	8c\	.	8e\	.	.	.	.	.	.
!	!	!	!	!	!	!LO:TX:t=P:problem:kreska pseudotaktowa	!	!LO:TX:t=P:problem:kreska pseudotaktowa	!	!	!	!	!	!
.	.	.	.	.	.	8d\	.	8f\	.	.	.	.	.	.
*Xcol	*	*	*Xcol	*	*	*	*	*	*	*Xcol	*Xcol	*	*Xcol	*
=59-	=59-	=59-	=59-	=59-	=59-	=59-	=59-	=59-	=59-	=59-	=59-	=59-	=59-	=59-
2E-X\	.	.	2E-X\	.	.	2e-X\	.	2g\	.	2g/	2gg\	.	2E-X\	.
*col	*	*	*col	*	*	*col	*	*col	*	*	*col	*	*col	*
1D	5:6	.	1D	5:6	.	1f	.	1d	.	2.a/	1ff	.	1D	.
.	.	.	.	.	.	.	.	.	.	4b-/	.	.	.	.
*Xcol	*	*	*Xcol	*	*	*Xcol	*	*Xcol	*	*	*Xcol	*	*Xcol	*
=60-	=60-	=60-	=60-	=60-	=60-	=60-	=60-	=60-	=60-	=60-	=60-	=60-	=60-	=60-
2C/	-	.	2C/	-	.	2c\	.	2e-X\	.	1cc	2ee-X\	.	2C/	.
*col	*	*	*col	*	*	*	*	*col	*	*	*col	*	*col	*
!	!	!	!	!	!	!	!	!LO:TX:t=P:problem:kreska pseudotaktowa	!	!	!LO:TX:t=P:problem:kreska pseudotaktowa	!	!	!
1GG	4:3	.	1GG	4:3	.	2d\	.	1g	.	.	1dd	.	1GG	.
!	!	!	!	!	!	!	!	!	!	!LO:N:acc=#	!	!	!	!
.	.	.	.	.	.	2G/	.	.	.	2bn/	.	.	.	.
*Xcol	*	*	*Xcol	*	*	*	*	*Xcol	*	*	*Xcol	*	*Xcol	*
=61-	=61-	=61-	=61-	=61-	=61-	=61-	=61-	=61-	=61-	=61-	=61-	=61-	=61-	=61-
1C	.	.	1C	.	.	1G	.	4g\	.	1cc	4cc\	.	1C	.
.	.	.	.	.	.	.	.	8c/	.	.	8eeny\	.	.	.
.	.	.	.	.	.	.	.	8d\	.	.	8ff\	.	.	.
.	.	.	.	.	.	.	.	4eny\	.	.	4gg\	.	.	.
.	.	.	.	.	.	.	.	4e\	.	.	4gg\	.	.	.
!	!	!	!	!	!	!	!	!	!	!LO:TX:t=P:problem:kreska pseudotaktowa	!	!	!	!
!	!	!	!	!	!	!LO:TX:t=P:problem:kreska pseudotaktowa	!	!	!	!	!	!	!	!
2r	.	.	2r	.	.	2r	.	4e\	.	2r	4gg\	.	2r	.
.	.	.	.	.	.	.	.	8d\	.	.	8ff\	.	.	.
.	.	.	.	.	.	.	.	8e\	.	.	8gg\	.	.	.
*	*	*	*	*	*	*	*	*	*	*custos:a	*	*	*	*
!	!	!	!	!	!	!	!	!	!	!LO:LB:g=original	!	!	!	!
=62-	=62-	=62-	=62-	=62-	=62-	=62-	=62-	=62-	=62-	=62-	=62-	=62-	=62-	=62-
1.F	.	.	1.F	.	.	4r	.	1f	.	4r	1aa	.	0.r	.
.	.	.	.	.	.	8F/	.	.	.	8a/	.	.	.	.
.	.	.	.	.	.	8G/	.	.	.	8b-y/	.	.	.	.
.	.	.	.	.	.	4A/	.	.	.	4cc\	.	.	.	.
.	.	.	.	.	.	4A/	.	.	.	4cc\	.	.	.	.
!	!	!	!	!	!	!	!	!LO:TX:t=P:problem:kreska pseudotaktowa	!	!	!LO:TX:t=P:problem:kreska pseudotaktowa	!	!	!
.	.	.	.	.	.	4A/	.	2r	.	4cc\	2r	.	.	.
.	.	.	.	.	.	8G/	.	.	.	8b-/	.	.	.	.
.	.	.	.	.	.	8A/	.	.	.	8cc\	.	.	.	.
=63-	=63-	=63-	=63-	=63-	=63-	=63-	=63-	=63-	=63-	=63-	=63-	=63-	=63-	=63-
2B-\	.	.	2B-\	.	.	2B-\	.	4r	.	2dd\	4r	.	.	.
.	.	.	.	.	.	.	.	8f\	.	.	8dd\	.	.	.
.	.	.	.	.	.	.	.	8g\	.	.	8ee\	.	.	.
*col	*	*	*col	*	*	*col	*	*	*	*col	*	*	*	*
1A	6	.	1A	6	.	1A	.	4a\	.	1cc	4ff\	.	.	.
.	.	.	.	.	.	.	.	4a\	.	.	4ff\	.	.	.
.	.	.	.	.	.	.	.	4a\	.	.	4ff\	.	.	.
.	.	.	.	.	.	.	.	8g\	.	.	8ee\	.	.	.
.	.	.	.	.	.	.	.	8a\	.	.	8ff\	.	.	.
*Xcol	*	*	*Xcol	*	*	*Xcol	*	*	*	*Xcol	*	*	*	*
=64-	=64-	=64-	=64-	=64-	=64-	=64-	=64-	=64-	=64-	=64-	=64-	=64-	=64-	=64-
2G\	.	.	2G\	.	.	2G/	.	2b-\	.	2b-/	2gg\	.	1.r	.
*col	*	*	*col	*	*	*col	*	*col	*	*col	*col	*	*	*
1D	#	.	1D	#	.	1D	.	1a	.	1dd	1ff#X	.	.	.
*	*	*	*	*	*	*Xcol	*	*	*	*	*	*	*	*
*Xcol	*	*	*Xcol	*	*	*custos:B	*	*Xcol	*	*Xcol	*Xcol	*	*	*
!	!	!	!	!	!	!LO:LB:g=original	!	!	!	!	!	!	!	!
=65-	=65-	=65-	=65-	=65-	=65-	=65-	=65-	=65-	=65-	=65-	=65-	=65-	=65-	=65-
2GG/	#	.	2GG/	#	.	4r	.	1g	.	1dd	1gg	.	4r	.
!	!	!	!	!	!	!LO:N:acc=#	!	!	!	!	!	!	!	!
.	.	.	.	.	.	8Bn\	.	.	.	.	.	.	8GG/	.
.	.	.	.	.	.	8c\	.	.	.	.	.	.	8AA/	.
*col	*	*	*col	*	*	*	*	*	*	*	*	*	*	*
!LO:TX:t=P:problem:kreska pseudotaktowa	!	!	!LO:TX:t=P:problem:kreska pseudotaktowa	!	!	!	!	!	!	!	!	!	!LO:N:acc=#	!
!LO:N:acc=#	!	!	!LO:N:acc=#	!	!	!	!	!	!	!	!	!	!	!
1BBn	.	.	1BBn	.	.	4d\	.	.	.	.	.	.	4BBn/	.
.	.	.	.	.	.	4d\	.	.	.	.	.	.	4BB/	.
.	.	.	.	.	.	4d\	.	2r	.	2r	2r	.	4BB/	.
.	.	.	.	.	.	8c\	.	.	.	.	.	.	8AA/	.
!	!	!	!	!	!	!	!	!	!	!	!	!	!LO:TX:t=P:problem:kreska pseudotaktowa	!
.	.	.	.	.	.	8d\	.	.	.	.	.	.	8BB/	.
*Xcol	*	*	*Xcol	*	*	*	*	*custos:e	*	*	*	*	*	*
!	!	!	!	!	!	!	!	!LO:LB:g=original	!	!	!	!	!	!
=66-	=66-	=66-	=66-	=66-	=66-	=66-	=66-	=66-	=66-	=66-	=66-	=66-	=66-	=66-
2C/	.	.	2C/	.	.	1eny	.	4r	.	0.r	1.r	.	4C/	.
.	.	.	.	.	.	.	.	8e\	.	.	.	.	8C/	.
.	.	.	.	.	.	.	.	8f\	.	.	.	.	8D/	.
*col	*	*	*col	*	*	*	*	*	*	*	*	*	*	*
1Eny	.	.	1Eny	.	.	.	.	4g\	.	.	.	.	4Eny\	.
.	.	.	.	.	.	.	.	4g\	.	.	.	.	4E\	.
!	!	!	!	!	!	!LO:TX:t=P:problem:kreska pseudotaktowa	!	!	!	!	!	!	!	!
.	.	.	.	.	.	2r	.	4g\	.	.	.	.	4E\	.
.	.	.	.	.	.	.	.	8f\	.	.	.	.	8D/	.
.	.	.	.	.	.	.	.	8g\	.	.	.	.	8E\	.
*Xcol	*	*	*Xcol	*	*	*	*	*	*	*	*	*	*	*
*custos:F	*	*	*custos:F	*	*	*	*	*	*	*	*	*	*	*
!LO:LB:g=original	!	!	!LO:LB:g=original	!	!	!	!	!	!	!	!	!	!	!
=67-	=67-	=67-	=67-	=67-	=67-	=67-	=67-	=67-	=67-	=67-	=67-	=67-	=67-	=67-
!	!	!	!	!	!	!	!	!	!	!LO:TX:t=P:problem:kreska pseudotaktowa	!	!	!	!
2F\	.	.	2F\	.	.	4r	.	2a\	.	.	4r	.	2F\	.
.	.	.	.	.	.	8A/	.	.	.	.	8cc\	.	.	.
.	.	.	.	.	.	8B-y\	.	.	.	.	8dd\	.	.	.
!LO:TX:t=P:problem:kreska pseudotaktowa	!	!	!LO:TX:t=P:problem:kreska pseudotaktowa	!	!	!	!	!	!	!	!	!	!	!
*col	*	*	*col	*	*	*	*	*col	*	*	*	*	*col	*
1E	6	.	1E	6	.	4c\	.	1g	.	.	4ee\	.	1E	.
.	.	.	.	.	.	4c\	.	.	.	.	4ee\	.	.	.
.	.	.	.	.	.	4c\	.	.	.	.	4ee\	.	.	.
.	.	.	.	.	.	8B-\	.	.	.	.	8dd\	.	.	.
.	.	.	.	.	.	8c\	.	.	.	.	8ee\	.	.	.
*Xcol	*	*	*Xcol	*	*	*	*	*Xcol	*	*	*	*	*Xcol	*
=68-	=68-	=68-	=68-	=68-	=68-	=68-	=68-	=68-	=68-	=68-	=68-	=68-	=68-	=68-
2D/	.	.	2D/	.	.	2d\	.	2f\	.	4r	2ffny\	.	2D/	.
.	.	.	.	.	.	.	.	.	.	8a/	.	.	.	.
.	.	.	.	.	.	.	.	.	.	8b-/	.	.	.	.
*col	*	*	*col	*	*	*	*	*col	*	*	*col	*	*col	*
1C	5:6	.	1C	5:6	.	2.G/	.	1g	.	4cc\	1ee	.	1C	.
.	.	.	.	.	.	.	.	.	.	4cc\	.	.	.	.
.	.	.	.	.	.	.	.	.	.	4cc\	.	.	.	.
.	.	.	.	.	.	4A/	.	.	.	8b-/	.	.	.	.
.	.	.	.	.	.	.	.	.	.	8cc\	.	.	.	.
*	*	*	*	*	*	*	*	*Xcol	*	*	*Xcol	*	*	*
*Xcol	*	*	*Xcol	*	*	*	*	*	*	*	*custos:dd	*	*Xcol	*
!	!	!	!	!	!	!	!	!	!	!	!LO:LB:g=original	!	!	!
=69-	=69-	=69-	=69-	=69-	=69-	=69-	=69-	=69-	=69-	=69-	=69-	=69-	=69-	=69-
2BB-/	.	.	2BB-/	.	.	2B-\	.	2d\	.	2dd\	2dd\	.	2BB-/	.
*col	*	*	*col	*	*	*col	*	*	*	*col	*col	*	*col	*
1AA	5:6	.	1AA	5:6	.	1c	.	2e\	.	1cc	1aa	.	1AA	.
.	.	.	.	.	.	.	.	2f\	.	.	.	.	.	.
*Xcol	*	*	*Xcol	*	*	*Xcol	*	*	*	*Xcol	*Xcol	*	*Xcol	*
=70-	=70-	=70-	=70-	=70-	=70-	=70-	=70-	=70-	=70-	=70-	=70-	=70-	=70-	=70-
2GG/	.	.	2GG/	.	.	2d\	.	1g	.	2b-/	2bb-\	.	2GG/	.
*col	*	*	*col	*	*	*col	*	*	*	*col	*col	*	*col	*
!LO:TX:t=P:problem:kreska pseudotaktowa	!	!	!LO:TX:t=P:problem:kreska pseudotaktowa	!	!	!	!	!	!	!	!	!	!	!
1D	4:3	.	1D	4:3	.	1d	.	.	.	1dd	1aa	.	1D	.
.	.	.	.	.	.	.	.	2f#X\	.	.	.	.	.	.
*Xcol	*	*	*Xcol	*	*	*Xcol	*	*	*	*Xcol	*Xcol	*	*Xcol	*
=71-	=71-	=71-	=71-	=71-	=71-	=71-	=71-	=71-	=71-	=71-	=71-	=71-	=71-	=71-
1GG	.	.	1GG	.	.	4d\	.	4g\	.	1dd	1gg	.	1GG	.
!	!	!	!	!	!	!	!	!LO:N:acc=#	!	!	!	!	!	!
.	.	.	.	.	.	8G/	.	8Bn/	.	.	.	.	.	.
.	.	.	.	.	.	8A/	.	8c/	.	.	.	.	.	.
!	!	!	!	!	!	!LO:N:acc=#	!	!	!	!	!	!	!	!
.	.	.	.	.	.	4Bn\	.	4d\	.	.	.	.	.	.
.	.	.	.	.	.	4B\	.	4d\	.	.	.	.	.	.
!	!	!	!	!	!	!	!	!	!	!LO:TX:t=P:problem:kreska pseudotaktowa	!LO:TX:t=P:problem:kreska pseudotaktowa	!	!	!
2G\	#	.	2G\	#	.	4B\	.	4d\	.	2r	2r	.	2r	.
.	.	.	.	.	.	8A/	.	8c/	.	.	.	.	.	.
.	.	.	.	.	.	8B\	.	8d\	.	.	.	.	.	.
=72-	=72-	=72-	=72-	=72-	=72-	=72-	=72-	=72-	=72-	=72-	=72-	=72-	=72-	=72-
2c\	-	.	2c\	-	.	2c\	.	2e-X\	.	4r	1.r	.	0.r	.
.	.	.	.	.	.	.	.	.	.	8g/	.	.	.	.
.	.	.	.	.	.	.	.	.	.	8a/	.	.	.	.
*col	*	*	*col	*	*	*col	*	*col	*	*	*	*	*	*
1B-	.	.	1B-	.	.	1B-y	.	1d	.	4b-/	.	.	.	.
.	.	.	.	.	.	.	.	.	.	4b-/	.	.	.	.
.	.	.	.	.	.	.	.	.	.	4b-/	.	.	.	.
.	.	.	.	.	.	.	.	.	.	8a/	.	.	.	.
.	.	.	.	.	.	.	.	.	.	8b-/	.	.	.	.
*Xcol	*	*	*Xcol	*	*	*Xcol	*	*Xcol	*	*	*	*	*	*
=73-	=73-	=73-	=73-	=73-	=73-	=73-	=73-	=73-	=73-	=73-	=73-	=73-	=73-	=73-
2A\	.	.	2A\	.	.	2A/	.	2c/	.	2cc\	4r	.	.	.
.	.	.	.	.	.	.	.	.	.	.	8ee\	.	.	.
.	.	.	.	.	.	.	.	.	.	.	8ff\	.	.	.
!	!	!	!	!	!	!LO:TX:t=P:problem:kreska pseudotaktowa	!	!	!	!	!	!	!	!
*col	*	*	*col	*	*	*col	*	*col	*	*col	*	*	*	*
1G	.	.	1G	.	.	1G	.	1d	.	1b-	4gg\	.	.	.
.	.	.	.	.	.	.	.	.	.	.	4gg\	.	.	.
.	.	.	.	.	.	.	.	.	.	.	4gg\	.	.	.
.	.	.	.	.	.	.	.	.	.	.	8ff\	.	.	.
.	.	.	.	.	.	.	.	.	.	.	8gg\	.	.	.
*	*	*	*	*	*	*Xcol	*	*	*	*	*	*	*	*
*Xcol	*	*	*Xcol	*	*	*custos:F#	*	*Xcol	*	*Xcol	*	*	*	*
!	!	!	!	!	!	!LO:LB:g=original	!	!	!	!	!	!	!	!
=74-	=74-	=74-	=74-	=74-	=74-	=74-	=74-	=74-	=74-	=74-	=74-	=74-	=74-	=74-
!	!	!	!	!	!	!	!	!LO:TX:t=P:problem:kreska pseudotaktowa	!	!	!	!	!	!
!LO:TX:t=P:problem:kreska pseudotaktowa	!	!	!LO:TX:t=P:problem:kreska pseudotaktowa	!	!	!	!	!	!	!LO:TX:t=P:problem:kreska pseudotaktowa	!	!	!	!
1.D	#	.	1.D	#	.	4F#X/	.	1.d	.	1.r	1aa	.	4r	.
.	.	.	.	.	.	8F#/	.	.	.	.	.	.	8D/	.
.	.	.	.	.	.	8G/	.	.	.	.	.	.	8E\	.
.	.	.	.	.	.	4A/	.	.	.	.	.	.	4F#X\	.
.	.	.	.	.	.	4A/	.	.	.	.	.	.	4F#\	.
*	*	*	*	*	*	*	*	*	*	*	*	*	*custos:F#	*
!	!	!	!	!	!	!	!	!	!	!	!LO:TX:t=P:problem:kreska pseudotaktowa	!	!LO:LB:g=original	!
.	.	.	.	.	.	4A/	.	.	.	.	2r	.	4F#\	.
.	.	.	.	.	.	8G/	.	.	.	.	.	.	8E\	.
!	!	!	!	!	!	!LO:TX:t=P:problem:kreska pseudotaktowa	!	!	!	!	!	!	!	!
.	.	.	.	.	.	8A/	.	.	.	.	.	.	8F#\	.
*	*	*	*	*	*	*	*	*custos:B	*	*	*	*	*	*
!	!	!	!	!	!	!	!	!LO:LB:g=original	!	!	!	!	!	!
=75-	=75-	=75-	=75-	=75-	=75-	=75-	=75-	=75-	=75-	=75-	=75-	=75-	=75-	=75-
2G\	.	.	2G\	.	.	2B-\	.	1.r	.	4r	4r	.	2G\	.
.	.	.	.	.	.	.	.	.	.	8b-/	8dd\	.	.	.
.	.	.	.	.	.	.	.	.	.	8cc\	8ee\	.	.	.
*col	*	*	*col	*	*	*col	*	*	*	*	*	*	*col	*
1F	6	.	1F	6	.	1A	.	.	.	4dd\	4ff\	.	1Fny	.
.	.	.	.	.	.	.	.	.	.	4dd\	4ff\	.	.	.
*	*	*	*	*	*	*	*	*	*	*custos:dd	*	*	*	*
!	!	!	!	!	!	!	!	!	!	!LO:LB:g=original	!	!	!	!
.	.	.	.	.	.	.	.	.	.	4dd\	4ff\	.	.	.
.	.	.	.	.	.	.	.	.	.	8cc\	8ee\	.	.	.
.	.	.	.	.	.	.	.	.	.	8dd\	8ff\	.	.	.
*Xcol	*	*	*Xcol	*	*	*Xcol	*	*	*	*	*	*	*Xcol	*
=76-	=76-	=76-	=76-	=76-	=76-	=76-	=76-	=76-	=76-	=76-	=76-	=76-	=76-	=76-
2E-X\	.	.	2E-X\	.	.	4G/	.	4r	.	2ee-X\	2gg\	.	2E-X\	.
.	.	.	.	.	.	8G/	.	8B-y/	.	.	.	.	.	.
.	.	.	.	.	.	8A/	.	8c/	.	.	.	.	.	.
*	*	*	*	*	*	*	*	*	*	*col	*	*	*	*
!	!	!	!	!	!	!	!	!	!	!LO:TX:t=P:problem:kreska pseudotaktowa	!	!	!	!
*col	*	*	*col	*	*	*	*	*	*	*	*col	*	*col	*
1D	6	.	1D	6	.	4B-\	.	4d\	.	1b-	1ff	.	1D	.
.	.	.	.	.	.	4B-\	.	4d\	.	.	.	.	.	.
.	.	.	.	.	.	4B-\	.	4d\	.	.	.	.	.	.
.	.	.	.	.	.	8A/	.	8c/	.	.	.	.	.	.
.	.	.	.	.	.	8B-\	.	8d\	.	.	.	.	.	.
*Xcol	*	*	*Xcol	*	*	*	*	*	*	*Xcol	*Xcol	*	*Xcol	*
=77-	=77-	=77-	=77-	=77-	=77-	=77-	=77-	=77-	=77-	=77-	=77-	=77-	=77-	=77-
2C/	-	.	2C/	-	.	2c\	.	2e-X\	.	4r	2ee-X\	.	2C/	.
.	.	.	.	.	.	.	.	.	.	8g/	.	.	.	.
.	.	.	.	.	.	.	.	.	.	8a/	.	.	.	.
*col	*	*	*col	*	*	*col	*	*	*	*	*col	*	*col	*
!	!	!	!	!	!	!	!	!LO:TX:t=P:problem:kreska pseudotaktowa	!	!	!	!	!	!
1BB-	6	.	1BB-	6	.	1G	.	1d	.	4b-/	1dd	.	1BB-	.
.	.	.	.	.	.	.	.	.	.	4b-/	.	.	.	.
.	.	.	.	.	.	.	.	.	.	4b-/	.	.	.	.
.	.	.	.	.	.	.	.	.	.	8a/	.	.	.	.
!	!	!	!	!	!	!	!	!	!	!LO:TX:t=P:problem:kreska pseudotaktowa	!	!	!	!
.	.	.	.	.	.	.	.	.	.	8b-/	.	.	.	.
*Xcol	*	*	*Xcol	*	*	*Xcol	*	*	*	*	*Xcol	*	*Xcol	*
=78-	=78-	=78-	=78-	=78-	=78-	=78-	=78-	=78-	=78-	=78-	=78-	=78-	=78-	=78-
2AA/	5	.	2AA/	5	.	2A/	.	4r	.	4cc\	2cc\	.	2AA/	.
.	.	.	.	.	.	.	.	8eny\	.	4a/	.	.	.	.
.	.	.	.	.	.	.	.	8fny\	.	.	.	.	.	.
*col	*	*	*col	*	*	*col	*	*	*	*col	*col	*	*	*
!	!	!	!	!	!	!	!	!	!	!	!LO:TX:t=P:problem:kreska pseudotaktowa	!	!	!
1GG	.	.	1GG	.	.	1B-	.	4g\	.	1dd	1b-	.	1GG	.
.	.	.	.	.	.	.	.	4g\	.	.	.	.	.	.
.	.	.	.	.	.	.	.	4g\	.	.	.	.	.	.
.	.	.	.	.	.	.	.	8f\	.	.	.	.	.	.
.	.	.	.	.	.	.	.	8g\	.	.	.	.	.	.
*Xcol	*	*	*Xcol	*	*	*Xcol	*	*	*	*Xcol	*Xcol	*	*	*
=79-	=79-	=79-	=79-	=79-	=79-	=79-	=79-	=79-	=79-	=79-	=79-	=79-	=79-	=79-
!	!	!	!	!	!	!	!	!	!	!LO:TX:t=P:problem:kreska pseudotaktowa	!	!	!	!
1.DD	8:7 #	.	1.DD	8:7 #	.	2.F#X/	.	1a	.	1.r	2dd\	.	[>1.DD	.
*	*	*	*	*	*	*	*	*	*	*	*col	*	*	*
.	.	.	.	.	.	.	.	.	.	.	1cc	.	.	.
.	.	.	.	.	.	4F#/	.	.	.	.	.	.	.	.
.	.	.	.	.	.	4G/	.	2g\	.	.	.	.	.	.
.	.	.	.	.	.	4A/	.	.	.	.	.	.	.	.
*	*	*	*	*	*	*	*	*	*	*	*Xcol	*	*	*
=80-	=80-	=80-	=80-	=80-	=80-	=80-	=80-	=80-	=80-	=80-	=80-	=80-	=80-	=80-
!LO:TX:b:t=Ffffff	!	!	!LO:TX:b:t=Ffffff	!	!	!	!	!	!	!	!	!	!	!
1.DD	8:7 6:5 #	.	1.DD	8:7 6:5 #	.	4B-\	.	1.f#X	.	2dd\	2b-/	.	1.DD_>	.
.	.	.	.	.	.	8A/	.	.	.	.	.	.	.	.
.	.	.	.	.	.	8B-\	.	.	.	.	.	.	.	.
*	*	*	*	*	*	*	*	*	*	*col	*col	*	*	*
.	.	.	.	.	.	4c\	.	.	.	1cc	1a	.	.	.
.	.	.	.	.	.	4c\	.	.	.	.	.	.	.	.
.	.	.	.	.	.	4c\	.	.	.	.	.	.	.	.
.	.	.	.	.	.	8B-\	.	.	.	.	.	.	.	.
.	.	.	.	.	.	8c\	.	.	.	.	.	.	.	.
*	*	*	*	*	*	*custos:d	*	*	*	*Xcol	*Xcol	*	*	*
!	!	!	!	!	!	!LO:LB:g=original	!	!	!	!	!	!	!	!
=81-	=81-	=81-	=81-	=81-	=81-	=81-	=81-	=81-	=81-	=81-	=81-	=81-	=81-	=81-
1.DD	6:5 4#r	.	1.DD	6:5 4#r	.	1d	.	2g\	.	2b-/	2g/	.	1.DD_>	.
*	*	*	*	*	*	*	*	*col	*	*col	*col	*	*	*
.	.	.	.	.	.	.	.	1a	.	1a	1f#X	.	.	.
.	.	.	.	.	.	2c\	.	.	.	.	.	.	.	.
*	*	*	*	*	*	*	*	*Xcol	*	*Xcol	*Xcol	*	*	*
=82-	=82-	=82-	=82-	=82-	=82-	=82-	=82-	=82-	=82-	=82-	=82-	=82-	=82-	=82-
1.DD	5 4#r	.	1.DD	5 4#r	.	2B-\	.	1.d	.	1g	2g/	.	1.DD]	.
*	*	*	*	*	*	*col	*	*	*	*	*col	*	*	*
.	.	.	.	.	.	1A	.	.	.	.	1a	.	.	.
.	.	.	.	.	.	.	.	.	.	2f#X/	.	.	.	.
*	*	*	*	*	*	*Xcol	*	*	*	*	*Xcol	*	*	*
=83-	=83-	=83-	=83-	=83-	=83-	=83-	=83-	=83-	=83-	=83-	=83-	=83-	=83-	=83-
!	!	!	!	!	!	!LO:N:acc=#	!	!	!	!	!	!	!	!
1.GG	.	.	1.GG	.	.	1.Bn	.	1.d	.	1.g	1.g	.	1.GG	.
=84:|!-	=84:|!-	=84:|!-	=84:|!-	=84:|!-	=84:|!-	=84:|!-	=84:|!-	=84:|!-	=84:|!-	=84:|!-	=84:|!-	=84:|!-	=84:|!-	=84:|!-
!LO:N:vis=0	!	!	!LO:N:vis=0	!	!	!	!	!LO:N:vis=0	!	!LO:N:vis=0	!LO:N:vis=0	!	!LO:N:vis=0	!
0.GG;	.	.	0.GG;	.	.	0.B-y;<	.	0.d;<	.	0.g;	0.g;	.	0.GG;	.
==	==	==	==	==	==	==	==	==	==	==	==	==	==	==
*-	*-	*-	*-	*-	*-	*-	*-	*-	*-	*-	*-	*-	*-	*-
!!!system-decoration: s1[(s2,s3,s4,s5)]s6,s7
!!!RDF**kern: > = above
!!!RDF**kern: < = below
!!!ENC: Andrzej Gręziak
!!!END: 2022-11-15
!!!ENC: Natalia Wrzos
!!!END: 2022-12-03
!!!YEC: Copyright 2022 Narodowy Instytut Fryderyka Chopina (https://polishscores.org)
!!!YEM: License CC-BY-4.0 (https://creativecommons.org/licenses/by/4.0)
